Adwaita++-Dark/actions/22/mail-mark-read.svg

<svg height="22" viewBox="0 0 22 22" width="22" xmlns="http://www.w3.org/2000/svg">
  <path d="m2 2.0039062c-1.108 0-2 .8920001-2 2v7.9999998c0 1.108.892 2 2 2h12c1.108 0 2-.892 2-2v-7.9999998c0-1.108-.892-2-2-2zm10.525391 1.90625c.38.0343.658203.3085938.658203.3085938s.72.7263625 0 1.4140625v.0019531l-6.3632815 6.3652344-3.5371094-3.5371094c-.3776-.359-.3776-1.0571156 0-1.4160156.3776-.359 1.0364625-.359 1.4140625 0l2.1210938 2.1230469 4.9492186-4.9511719c.264-.2642.529813-.3292937.757813-.3085938z" fill="#e6ddff" transform="translate(3 3)"/>
</svg>

<svg xmlns="http://www.w3.org/2000/svg" width="22" height="22" viewBox="0 0 22 22">
 <defs>
  <style id="current-color-scheme" type="text/css">
   .ColorScheme-Text { color:#E6DDFF; } .ColorScheme-Highlight { color:#4285f4; }
  </style>
 </defs>
 <path style="fill:currentColor" class="ColorScheme-Text" d="M 2 2.0039062 C 0.892 2.0039062 0 2.8959063 0 4.0039062 L 0 12.003906 C 0 13.111906 0.892 14.003906 2 14.003906 L 14 14.003906 C 15.108 14.003906 16 13.111906 16 12.003906 L 16 4.0039062 C 16 2.8959062 15.108 2.0039062 14 2.0039062 L 2 2.0039062 z M 12.525391 3.9101562 C 12.905391 3.9444562 13.183594 4.21875 13.183594 4.21875 C 13.183594 4.21875 13.903594 4.9451125 13.183594 5.6328125 L 13.183594 5.6347656 L 6.8203125 12 L 3.2832031 8.4628906 C 2.9056031 8.1038906 2.9056031 7.405775 3.2832031 7.046875 C 3.6608031 6.687875 4.3196656 6.687875 4.6972656 7.046875 L 6.8183594 9.1699219 L 11.767578 4.21875 C 12.031578 3.95455 12.297391 3.8894563 12.525391 3.9101562 z" transform="translate(3 3)"/>
</svg>
